X: 276
T:Scrabble On Sunday ?
% Nottingham Music Database
S:John Goodacre 1984, via Phil Rowe
M:6/8
K:Em
"Em"E2G E2G|"Em"BAG "D"FGA|"Em"E2G E2G|"Em"BAF "G"G3|
"C"E2G E2G|"Bm"BAG FGA|"D"FAF "Em"EGE|"Bm"F2D "Em"E3::
"Bm"B2F B2F|"Bm"dcB "A"AcA|"Bm"B2F B2F|"Bm"dcB "F#m"A3|
"Bm"B2F B2F|"Bm"dcB "A"AcA|"Bm"dcB "F#m"AGF|"Em"EGA B3:|<end>
<start>
